X: 21474
T: Kevin Riley's Welcome To Starfleet
R: jig
M: 6/8
K: Gmajor
|:D>DG c>BA|GEA d>^cd|fed cAF|AGF GEC|
D>DG c>BA|GEA d>^cd|fed cAF|AGF G2d:|
e>fg f>ed|cde d>BG|B>BB B>BB|BAG A2d|
e>fg f>ed|cde d>BG|BGE AFD|G>GG G2d|
e>fg f>ed|cde d>BG|B>BB B>BB|BAG A2d|
D>DD D>GB|A>AA A=Fe|d>cB c>BA|=fed E>EE|
G>GG A>AA|c>cc e>ee|g>gg gaf|g>gg g3||

